assets/images/avatars/user/custom-avatars/season-f1/stopwatch-ice600.svg

<svg width="52" height="52" viewBox="0 0 52 52" fill="none" xmlns="http://www.w3.org/2000/svg">
<g clip-path="url(#clip0_26_81655)">
<rect width="52" height="52" fill="#4BA6A6"/>
<path d="M26 52C40.3594 52 52 40.3594 52 26C52 11.6406 40.3594 0 26 0C11.6406 0 0 11.6406 0 26C0 40.3594 11.6406 52 26 52Z" fill="#4BA6A6"/>
<path d="M25.9999 46.7669C37.4691 46.7669 46.7667 37.4693 46.7667 26.0002C46.7667 14.531 37.4691 5.2334 25.9999 5.2334C14.5308 5.2334 5.23315 14.531 5.23315 26.0002C5.23315 37.4693 14.5308 46.7669 25.9999 46.7669Z" fill="#4BA6A6" stroke="#002140" stroke-width="0.65" stroke-miterlimit="10"/>
<path d="M36.2138 11.1522C36.1272 11.4429 35.8538 11.6333 35.5631 11.6333C35.4973 11.6333 35.435 11.6264 35.3692 11.6056L34.9678 11.4844L31.337 10.3838L30.9217 10.2592C30.5652 10.1519 30.3645 9.77119 30.4718 9.4147C30.5583 9.12396 30.8283 8.93359 31.1155 8.93359C31.1813 8.93359 31.247 8.94399 31.3128 8.96475L35.7603 10.3111C36.1168 10.4184 36.3211 10.7957 36.2138 11.1522Z" fill="#50EEF6"/>
<path d="M36.7779 7.97105C36.7779 8.73596 36.4699 9.42817 35.968 9.92658L35.7603 10.3108L31.3127 8.96439C31.247 8.94363 31.1812 8.93323 31.1155 8.93323L31.3439 8.71865C31.2747 8.47983 31.2401 8.23064 31.2401 7.97105C31.2401 6.44123 32.4792 5.20215 34.009 5.20215C35.5388 5.20215 36.7779 6.44123 36.7779 7.97105Z" fill="#50EEF6"/>
<path d="M34.3966 13.1492L34.3585 13.215C32.133 13.125 31.0808 12.2044 30.8281 11.9482L30.8385 11.9205L31.3369 10.3838L34.9677 11.4844L34.9296 11.6056L34.4208 13.0869L34.3966 13.1492Z" fill="#28736D"/>
<path d="M24.6882 25.1448C24.7713 25.1863 24.844 25.2417 24.9063 25.3109C25.2697 25.702 25.2905 26.4738 24.9167 27.1868C24.4806 28.0209 23.6707 28.4605 23.1065 28.1663C22.5458 27.8687 22.442 26.9549 22.8781 26.1208C23.103 25.6916 23.4284 25.3662 23.7676 25.1932C23.9718 25.0894 24.1864 25.0375 24.3837 25.0582C24.4909 25.0651 24.5913 25.0963 24.6882 25.1448Z" fill="#28736D"/>
<path d="M19.5864 23.3526C20.0121 23.5776 20.0917 24.2733 19.7594 24.9066C19.4271 25.5435 18.8111 25.8758 18.3819 25.6508C17.9527 25.4293 17.8766 24.7301 18.2088 24.0967C18.5411 23.4599 19.1572 23.1276 19.5864 23.3526Z" fill="#28736D"/>
<path d="M29.3571 28.2389C29.7828 28.4639 29.8624 29.1596 29.5302 29.7964C29.1979 30.4298 28.5818 30.7621 28.1526 30.5371C27.7235 30.3156 27.6473 29.6165 27.9796 28.9831C28.3118 28.3497 28.9279 28.014 29.3571 28.2389Z" fill="#28736D"/>
<path d="M24.4494 19.1987L24.3836 24.9649V25.0584C24.1863 25.0376 23.9717 25.0895 23.7675 25.1933L23.7363 25.1345L23.7987 19.2817L22.7153 19.4236L23.9509 16.4229L25.5292 19.0014L24.4494 19.1987Z" fill="#002140"/>
<path d="M24.9927 25.2736L24.9062 25.3117C24.8439 25.2425 24.7712 25.1871 24.6881 25.1456C24.5912 25.0971 24.4908 25.0659 24.3835 25.059V24.9656H24.4009L27.7963 18.6525L26.5087 17.8564L29.8245 16.0186L29.8106 16.555L29.7587 18.7078L29.731 19.7531L28.3881 18.9605L24.9927 25.2736Z" fill="#002140"/>
<path d="M23.2138 35.0856C23.4457 35.2068 23.4872 35.5805 23.3072 35.9232C23.1307 36.2624 22.7984 36.4424 22.5665 36.3212C22.3381 36.2001 22.2966 35.8263 22.4731 35.4871C22.6531 35.1445 22.9853 34.9645 23.2138 35.0856Z" fill="#4ED7DE"/>
<path d="M19.6659 34.5938C20.0917 34.8153 20.1713 35.511 19.839 36.1479C19.5067 36.7813 18.8907 37.1135 18.4615 36.892C18.0323 36.667 17.9561 35.9714 18.2884 35.3345C18.6207 34.7011 19.2368 34.3689 19.6659 34.5938Z" fill="#28736D"/>
<path d="M12.8165 32.4202C12.7819 31.6726 12.8096 30.8973 12.9065 30.0978C13.4257 25.7575 14.5713 23.4939 14.8101 23.0613L14.8205 23.0405C14.8447 23.0025 14.8551 22.9817 14.8551 22.9817C14.9278 22.8329 14.997 22.684 15.0732 22.5317C15.1286 22.421 15.1839 22.3102 15.2428 22.1995C16.8003 19.2402 18.8735 16.8105 21.1717 15.0522C24.5255 12.5671 28.2566 11.7746 31.1916 13.3078C36.0891 15.8725 36.9163 23.9577 33.0364 31.368C29.1599 38.7783 22.0439 42.7101 17.1464 40.1454C14.554 38.7921 12.9896 35.9436 12.8165 32.4444V32.4202ZM30.9044 30.3054C34.2721 23.8712 33.8671 17.0182 30.001 14.9969C26.3565 13.0898 20.9363 16.1563 17.5098 21.9053C17.5098 21.9053 16.0111 23.8504 15.1424 27.5608C14.0106 32.4133 14.862 36.7466 17.8109 38.2903C21.677 40.3116 27.5367 36.7397 30.9044 30.3054Z" fill="#4ED7DE"/>
<path d="M34.3965 13.1491L34.4311 13.0937C40.2493 16.4233 41.523 25.5849 37.2381 33.7774C32.8771 42.1118 24.4112 46.2894 18.33 43.1086C14.6508 41.1842 12.8164 37.2593 12.8164 32.4449C12.9895 35.9441 14.5539 38.7926 17.1463 40.1459C22.0438 42.7106 29.1598 38.7787 33.0363 31.3684C36.9162 23.9582 36.089 15.873 31.1915 13.3083C28.2565 11.775 24.5254 12.5676 21.1716 15.0527C24.2104 12.7233 27.6439 11.5708 30.797 11.9169C30.8039 11.9238 30.8143 11.9377 30.8281 11.9481C31.0808 12.2042 32.133 13.1248 34.3585 13.2148L34.3965 13.1491Z" fill="#50EEF6"/>
<path d="M30.0011 14.9974C33.8672 17.0187 34.2721 23.8717 30.9044 30.306C27.5368 36.7402 21.677 40.3121 17.811 38.2908C14.8621 36.7471 14.0107 32.4138 15.1424 27.5613C16.0112 23.851 17.5098 21.9058 17.5098 21.9058C20.9364 16.1569 26.3565 13.0903 30.0011 14.9974ZM25.377 16.6968C25.197 17.0395 25.2385 17.4133 25.4704 17.5344C25.7023 17.6555 26.0311 17.4756 26.2111 17.1329C26.3876 16.7937 26.3461 16.4165 26.1177 16.2988C25.8858 16.1776 25.557 16.3576 25.377 16.6968ZM25.5293 19.0019L23.951 16.4234L22.7154 19.4242L23.7987 19.2823L23.7364 25.135L23.7676 25.1939C23.4284 25.3669 23.103 25.6923 22.8781 26.1215C22.442 26.9556 22.5458 27.8693 23.1065 28.167C23.6707 28.4612 24.4806 28.0216 24.9167 27.1875C25.2905 26.4745 25.2697 25.7027 24.9063 25.3116L24.9928 25.2735L28.3882 18.9604L29.7311 19.753L29.7588 18.7077H29.7865C29.9492 18.5693 30.0945 18.3893 30.2087 18.1712C30.541 17.5379 30.4614 16.8387 30.0322 16.6172C29.9734 16.5861 29.9111 16.5653 29.8453 16.5549H29.8107L29.8246 16.0184L26.5088 17.8563L27.7964 18.6524L24.401 24.9654H24.3836L24.4494 19.1992L25.5293 19.0019ZM31.4755 21.577C31.652 21.2344 31.6105 20.8605 31.3821 20.7394C31.1502 20.6183 30.8179 20.7983 30.6414 21.1409C30.4614 21.4801 30.503 21.8539 30.7348 21.975C30.9633 22.0962 31.2955 21.9162 31.4755 21.577ZM31.0394 25.585C31.2159 25.2458 31.1744 24.872 30.946 24.7509C30.7141 24.6297 30.3818 24.8097 30.2053 25.1489C30.0253 25.4915 30.0668 25.8653 30.2987 25.9865C30.5272 26.1076 30.8594 25.9276 31.0394 25.585ZM29.5303 29.7972C29.8626 29.1603 29.783 28.4647 29.3573 28.2397C28.9281 28.0147 28.312 28.3504 27.9798 28.9838C27.6475 29.6172 27.7236 30.3163 28.1528 30.5379C28.582 30.7628 29.1981 30.4306 29.5303 29.7972ZM26.8376 33.6183C27.0176 33.2756 26.9761 32.9018 26.7442 32.7807C26.5157 32.6595 26.1835 32.8395 26.0069 33.1787C25.827 33.5214 25.8685 33.8952 26.1004 34.0163C26.3288 34.1374 26.6611 33.9575 26.8376 33.6183ZM23.3072 35.9234C23.4872 35.5807 23.4457 35.2069 23.2138 35.0858C22.9853 34.9646 22.6531 35.1446 22.4731 35.4873C22.2966 35.8265 22.3381 36.2003 22.5665 36.3214C22.7984 36.4426 23.1307 36.2626 23.3072 35.9234ZM21.241 20.6736C21.4209 20.3344 21.3794 19.9572 21.1475 19.8395C20.9191 19.7184 20.5868 19.8949 20.4068 20.2375C20.2303 20.5802 20.2718 20.954 20.5003 21.0751C20.7322 21.1963 21.0644 21.0163 21.241 20.6736ZM19.8392 36.1484C20.1714 35.5115 20.0918 34.8158 19.6661 34.5943C19.2369 34.3693 18.6209 34.7016 18.2886 35.335C17.9563 35.9718 18.0325 36.6675 18.4617 36.8925C18.8908 37.114 19.5069 36.7817 19.8392 36.1484ZM19.7596 24.9066C20.0918 24.2732 20.0122 23.5775 19.5865 23.3525C19.1573 23.1276 18.5413 23.4599 18.209 24.0967C17.8767 24.7301 17.9529 25.4292 18.3821 25.6507C18.8112 25.8757 19.4273 25.5435 19.7596 24.9066ZM17.2087 32.6907C17.3887 32.3515 17.3472 31.9777 17.1153 31.8565C16.8868 31.7354 16.5546 31.9154 16.3746 32.2546C16.1981 32.5972 16.2396 32.971 16.468 33.0922C16.6999 33.2133 17.0322 33.0333 17.2087 32.6907ZM17.1672 29.1984C17.3472 28.8557 17.3056 28.482 17.0737 28.3608C16.8453 28.2397 16.513 28.4196 16.3365 28.7623C16.1565 29.1015 16.1981 29.4753 16.43 29.5964C16.6584 29.7176 16.9907 29.5376 17.1672 29.1984Z" fill="#CCF6FF"/>
<path d="M17.5098 21.9058C20.9364 16.1569 26.3565 13.0903 30.0011 14.9974C33.8672 17.0187 34.2721 23.8717 30.9044 30.306C27.5368 36.7402 21.677 40.3121 17.811 38.2908C14.8621 36.7471 14.0107 32.4138 15.1424 27.5613C16.0112 23.851 17.5098 21.9058 17.5098 21.9058Z" stroke="#002140" stroke-width="0.65" stroke-linecap="round" stroke-linejoin="round"/>
<path d="M15.2427 22.1999C16.8002 19.2407 18.8734 16.8109 21.1716 15.0527C24.2105 12.7233 27.6439 11.5708 30.797 11.9169C30.8108 11.9169 30.8247 11.9204 30.8385 11.9204C30.8454 11.9204 30.8558 11.9204 30.8628 11.9204" stroke="#002140" stroke-width="0.65" stroke-linecap="round" stroke-linejoin="round"/>
<path d="M14.8206 23.041C14.9002 22.8714 14.9833 22.7018 15.0733 22.5322" stroke="#002140" stroke-width="0.65" stroke-linecap="round" stroke-linejoin="round"/>
<path d="M12.8164 32.4201C12.8164 32.1432 12.8198 31.8663 12.8337 31.5859" stroke="#002140" stroke-width="0.65" stroke-linecap="round" stroke-linejoin="round"/>
<path d="M34.4207 13.0869C34.4207 13.0869 34.4277 13.0904 34.4311 13.0938C40.2493 16.4234 41.523 25.5851 37.2381 33.7776C32.8771 42.112 24.4112 46.2895 18.33 43.1087C14.6508 41.1844 12.8164 37.2594 12.8164 32.445" stroke="#002140" stroke-width="0.65" stroke-linecap="round" stroke-linejoin="round"/>
<path d="M14.8205 23.0405C14.8447 23.0025 14.8551 22.9817 14.8551 22.9817C14.9278 22.8329 14.997 22.684 15.0732 22.5317C15.1286 22.421 15.1839 22.3102 15.2428 22.1995C15.2635 22.1614 15.2808 22.1233 15.3016 22.0853C16.8556 19.1156 18.9289 16.7067 21.1717 15.0522C24.5255 12.5671 28.2566 11.7746 31.1916 13.3078C36.0891 15.8725 36.9163 23.9577 33.0364 31.368C29.1599 38.7783 22.0439 42.7101 17.1464 40.1454C14.554 38.7921 12.9896 35.9436 12.8165 32.4444V32.4202C12.7819 31.6726 12.8096 30.8973 12.9065 30.0978C13.4257 25.7575 14.5713 23.4939 14.8101 23.0613L14.8205 23.0405Z" stroke="#002140" stroke-width="0.65" stroke-linecap="round" stroke-linejoin="round"/>
<path d="M24.9063 25.3109C25.2697 25.702 25.2905 26.4738 24.9167 27.1868C24.4806 28.0209 23.6707 28.4605 23.1065 28.1663C22.5458 27.8687 22.442 26.9549 22.8781 26.1208C23.103 25.6916 23.4284 25.3662 23.7676 25.1932C23.9718 25.0894 24.1864 25.0375 24.3837 25.0582C24.4909 25.0651 24.5913 25.0963 24.6882 25.1448C24.7713 25.1863 24.844 25.2417 24.9063 25.3109Z" stroke="#002140" stroke-width="0.65" stroke-linecap="round" stroke-linejoin="round"/>
<path d="M30.7659 11.8818C30.7659 11.8818 30.7762 11.8922 30.797 11.9164C30.8039 11.9234 30.8143 11.9372 30.8281 11.9476C31.0808 12.2037 32.133 13.1244 34.3585 13.2144" stroke="#002140" stroke-width="0.65" stroke-linecap="round" stroke-linejoin="round"/>
<path d="M30.8179 11.9859L30.8282 11.9479L30.8386 11.9202L31.337 10.3834L31.3405 10.373" stroke="#002140" stroke-width="0.65" stroke-linecap="round" stroke-linejoin="round"/>
<path d="M34.3896 13.1733L34.3966 13.1491L34.4208 13.0868L34.9296 11.6055" stroke="#002140" stroke-width="0.65" stroke-linecap="round" stroke-linejoin="round"/>
<path d="M35.7603 10.3111C36.1168 10.4184 36.3211 10.7957 36.2138 11.1522C36.1272 11.4429 35.8538 11.6333 35.5631 11.6333C35.4973 11.6333 35.435 11.6264 35.3692 11.6056L34.9678 11.4844L31.337 10.3838L30.9217 10.2592C30.5652 10.1519 30.3645 9.77119 30.4718 9.4147C30.5583 9.12396 30.8283 8.93359 31.1155 8.93359C31.1813 8.93359 31.247 8.94399 31.3128 8.96475L35.7603 10.3111Z" stroke="#002140" stroke-width="0.65" stroke-linecap="round" stroke-linejoin="round"/>
<path d="M24.4009 24.9656L27.7963 18.6525L26.5087 17.8564L29.8245 16.0186L29.8106 16.555L29.7587 18.7078L29.731 19.7531L28.3881 18.9605L24.9927 25.2736" stroke="#002140" stroke-width="0.65" stroke-linecap="round" stroke-linejoin="round"/>
<path d="M23.7363 25.1345L23.7987 19.2817L22.7153 19.4236L23.9509 16.4229L25.5292 19.0014L24.4494 19.1987L24.3836 24.9649V25.0514" stroke="#002140" stroke-width="0.65" stroke-linecap="round" stroke-linejoin="round"/>
<path d="M29.5302 29.7964C29.1979 30.4298 28.5818 30.7621 28.1526 30.5371C27.7235 30.3156 27.6473 29.6165 27.9796 28.9831C28.3118 28.3497 28.9279 28.014 29.3571 28.2389C29.7828 28.4639 29.8624 29.1596 29.5302 29.7964Z" stroke="#002140" stroke-width="0.65" stroke-linecap="round" stroke-linejoin="round"/>
<path d="M19.839 36.1479C19.5067 36.7813 18.8907 37.1135 18.4615 36.892C18.0323 36.667 17.9561 35.9714 18.2884 35.3345C18.6207 34.7011 19.2368 34.3689 19.6659 34.5938C20.0917 34.8153 20.1713 35.511 19.839 36.1479Z" stroke="#002140" stroke-width="0.65" stroke-linecap="round" stroke-linejoin="round"/>
<path d="M29.8452 16.5547C29.911 16.5651 29.9733 16.5858 30.0321 16.617C30.4613 16.8385 30.5409 17.5376 30.2086 18.171C30.0944 18.3891 29.9491 18.5691 29.7864 18.7075" stroke="#002140" stroke-width="0.65" stroke-linecap="round" stroke-linejoin="round"/>
<path d="M31.0393 25.5848C30.8593 25.9275 30.527 26.1075 30.2986 25.9863C30.0667 25.8652 30.0251 25.4914 30.2051 25.1487C30.3816 24.8095 30.7139 24.6295 30.9458 24.7507C31.1742 24.8718 31.2158 25.2456 31.0393 25.5848Z" stroke="#002140" stroke-width="0.65" stroke-linecap="round" stroke-linejoin="round"/>
<path d="M31.4755 21.5765C31.2955 21.9157 30.9633 22.0957 30.7349 21.9746C30.503 21.8534 30.4614 21.4796 30.6414 21.1404C30.8179 20.7978 31.1502 20.6178 31.3821 20.7389C31.6105 20.8601 31.652 21.2339 31.4755 21.5765Z" stroke="#002140" stroke-width="0.65" stroke-linecap="round" stroke-linejoin="round"/>
<path d="M17.1671 29.1976C16.9906 29.5368 16.6584 29.7168 16.4299 29.5957C16.198 29.4745 16.1565 29.1007 16.3365 28.7615C16.513 28.4189 16.8453 28.2389 17.0737 28.36C17.3056 28.4812 17.3471 28.855 17.1671 29.1976Z" stroke="#002140" stroke-width="0.65" stroke-linecap="round" stroke-linejoin="round"/>
<path d="M17.2086 32.6903C17.0321 33.0329 16.6998 33.2129 16.4679 33.0918C16.2395 32.9706 16.198 32.5968 16.3745 32.2542C16.5545 31.915 16.8867 31.735 17.1151 31.8562C17.347 31.9773 17.3886 32.3511 17.2086 32.6903Z" stroke="#002140" stroke-width="0.65" stroke-linecap="round" stroke-linejoin="round"/>
<path d="M23.3072 35.9232C23.1307 36.2624 22.7984 36.4424 22.5665 36.3212C22.3381 36.2001 22.2966 35.8263 22.4731 35.4871C22.6531 35.1445 22.9853 34.9645 23.2138 35.0856C23.4457 35.2068 23.4872 35.5805 23.3072 35.9232Z" stroke="#002140" stroke-width="0.65" stroke-linecap="round" stroke-linejoin="round"/>
<path d="M26.8376 33.6176C26.661 33.9568 26.3288 34.1367 26.1003 34.0156C25.8684 33.8945 25.8269 33.5207 26.0069 33.178C26.1834 32.8388 26.5157 32.6588 26.7441 32.78C26.976 32.9011 27.0175 33.2749 26.8376 33.6176Z" stroke="#002140" stroke-width="0.65" stroke-linecap="round" stroke-linejoin="round"/>
<path d="M21.2408 20.6731C21.0643 21.0157 20.732 21.1957 20.5002 21.0746C20.2717 20.9534 20.2302 20.5796 20.4067 20.237C20.5867 19.8943 20.9189 19.7178 21.1474 19.8389C21.3793 19.9566 21.4208 20.3339 21.2408 20.6731Z" stroke="#002140" stroke-width="0.65" stroke-linecap="round" stroke-linejoin="round"/>
<path d="M26.2111 17.1327C26.0312 17.4753 25.7023 17.6553 25.4704 17.5341C25.2386 17.413 25.197 17.0392 25.377 16.6966C25.557 16.3574 25.8858 16.1774 26.1177 16.2985C26.3461 16.4162 26.3877 16.7935 26.2111 17.1327Z" stroke="#002140" stroke-width="0.65" stroke-linecap="round" stroke-linejoin="round"/>
<path d="M19.7594 24.9066C19.4271 25.5435 18.8111 25.8758 18.3819 25.6508C17.9527 25.4293 17.8766 24.7301 18.2088 24.0967C18.5411 23.4599 19.1572 23.1276 19.5864 23.3526C20.0121 23.5776 20.0917 24.2733 19.7594 24.9066Z" stroke="#002140" stroke-width="0.65" stroke-linecap="round" stroke-linejoin="round"/>
<path d="M31.3438 8.71865C31.2746 8.47983 31.24 8.23064 31.24 7.97105C31.24 6.44123 32.4791 5.20215 34.0089 5.20215C35.5387 5.20215 36.7778 6.44123 36.7778 7.97105C36.7778 8.73596 36.4698 9.42817 35.9679 9.92658" stroke="#002140" stroke-width="0.65" stroke-linecap="round" stroke-linejoin="round"/>
</g>
<defs>
<clipPath id="clip0_26_81655">
<rect width="52" height="52" fill="white"/>
</clipPath>
</defs>
</svg>

<svg xmlns="http://www.w3.org/2000/svg" width="52" height="52" fill="none" viewBox="0 0 52 52"><g clip-path="url(#a)"><path fill="#4ba6a6" d="M0 0h52v52H0z"/><path fill="#4ba6a6" d="M26 52c14.36 0 26-11.64 26-26S40.36 0 26 0 0 11.64 0 26s11.64 26 26 26"/><path fill="#4ba6a6" stroke="#002140" stroke-miterlimit="10" stroke-width=".65" d="M26 46.767c11.47 0 20.767-9.298 20.767-20.767S37.469 5.233 26 5.233C14.53 5.233 5.233 14.531 5.233 26c0 11.47 9.298 20.767 20.767 20.767Z"/><path fill="#50eef6" d="M36.214 11.152a.68.68 0 0 1-.845.454l-.401-.122-3.631-1.1-.415-.125a.678.678 0 0 1 .194-1.325q.098 0 .197.03l4.447 1.347a.677.677 0 0 1 .454.841"/><path fill="#50eef6" d="M36.778 7.971c0 .765-.308 1.457-.81 1.956l-.208.384-4.447-1.347a.7.7 0 0 0-.197-.03l.228-.215a2.768 2.768 0 1 1 5.434-.748"/><path fill="#28736d" d="m34.397 13.15-.038.065c-2.226-.09-3.278-1.01-3.53-1.267l.01-.027.498-1.537 3.63 1.1-.037.122-.51 1.48zm-9.709 11.995a.7.7 0 0 1 .218.166c.364.391.385 1.163.01 1.876-.435.834-1.245 1.273-1.81.98-.56-.298-.664-1.212-.228-2.046.225-.43.55-.755.89-.928.204-.104.418-.155.616-.135a.8.8 0 0 1 .304.087m-5.102-1.792c.426.225.506.92.173 1.554-.332.637-.948.969-1.377.744-.43-.222-.505-.92-.173-1.554.332-.637.948-.97 1.377-.744m9.771 4.886c.426.225.505.92.173 1.557-.332.634-.948.966-1.377.741-.43-.221-.506-.92-.173-1.554.332-.633.948-.969 1.377-.744"/><path fill="#002140" d="m24.45 19.199-.066 5.766v.093a1.1 1.1 0 0 0-.617.135l-.03-.059.062-5.852-1.084.142 1.236-3.001L25.529 19z"/><path fill="#002140" d="m24.993 25.274-.087.038a.8.8 0 0 0-.523-.253v-.093h.018l3.395-6.314-1.287-.796 3.316-1.837-.014.536-.052 2.153-.028 1.045-1.343-.793z"/><path fill="#4ed7de" d="M23.214 35.086c.232.12.273.495.093.837-.176.34-.509.52-.74.398-.229-.12-.27-.495-.094-.834.18-.343.512-.523.74-.401"/><path fill="#28736d" d="M19.666 34.594c.426.221.505.917.173 1.554-.332.633-.948.965-1.377.744-.43-.225-.506-.92-.174-1.558.333-.633.949-.965 1.378-.74"/><path fill="#4ed7de" d="M12.817 32.42a14 14 0 0 1 .09-2.322c.519-4.34 1.664-6.604 1.903-7.037l.01-.02q.036-.059.035-.06c.073-.148.142-.297.218-.45.056-.11.11-.22.17-.331 1.557-2.96 3.63-5.39 5.929-7.148 3.354-2.485 7.085-3.277 10.02-1.744 4.897 2.565 5.724 10.65 1.844 18.06-3.876 7.41-10.992 11.342-15.89 8.777-2.592-1.353-4.156-4.201-4.33-7.7zm18.087-2.115c3.368-6.434 2.963-13.287-.903-15.308-3.645-1.907-9.065 1.16-12.491 6.908 0 0-1.499 1.945-2.368 5.656-1.131 4.852-.28 9.186 2.669 10.73 3.866 2.02 9.726-1.551 13.093-7.986"/><path fill="#50eef6" d="m34.397 13.15.034-.056c5.818 3.33 7.092 12.49 2.807 20.683-4.36 8.335-12.827 12.512-18.908 9.332-3.68-1.925-5.514-5.85-5.514-10.664.173 3.5 1.738 6.348 4.33 7.7 4.898 2.566 12.014-1.366 15.89-8.777 3.88-7.41 3.053-15.495-1.844-18.06-2.936-1.533-6.667-.74-10.02 1.745 3.038-2.33 6.472-3.482 9.625-3.136q.01.012.031.031c.253.256 1.305 1.177 3.53 1.267z"/><path fill="#ccf6ff" d="M30.001 14.997c3.866 2.022 4.271 8.875.903 15.309s-9.227 10.006-13.093 7.985c-2.949-1.544-3.8-5.877-2.669-10.73.87-3.71 2.368-5.655 2.368-5.655 3.426-5.75 8.846-8.816 12.491-6.909m-4.624 1.7c-.18.343-.139.716.093.837.232.122.561-.058.741-.401.177-.34.135-.716-.093-.834-.232-.121-.561.059-.741.398m.152 2.305-1.578-2.579-1.236 3.001 1.084-.142-.063 5.853.032.059c-.34.173-.665.498-.89.928-.436.834-.332 1.747.229 2.045.564.294 1.374-.145 1.81-.98.373-.713.353-1.484-.01-1.875l.086-.039 3.395-6.313 1.343.793.028-1.045h.027c.163-.139.308-.319.423-.537.332-.633.252-1.332-.177-1.554a.6.6 0 0 0-.187-.062h-.034l.014-.537-3.316 1.838 1.287.796-3.395 6.313h-.017l.065-5.766zm5.947 2.575c.176-.343.134-.717-.094-.838-.232-.12-.564.06-.74.402-.18.34-.139.713.093.834.228.121.56-.059.74-.398m-.437 4.008c.177-.34.135-.713-.093-.834-.232-.121-.564.059-.74.398-.18.342-.14.716.093.837.228.122.56-.058.74-.401m-1.509 4.212c.333-.637.253-1.332-.173-1.557-.429-.225-1.045.11-1.377.744-.332.633-.256 1.332.173 1.554.429.225 1.045-.107 1.377-.74m-2.692 3.821c.18-.342.138-.716-.094-.837-.228-.121-.56.059-.737.398-.18.342-.139.716.093.837.229.121.561-.058.738-.398m-3.53 2.305c.18-.342.138-.716-.094-.837-.229-.121-.56.059-.74.401-.177.34-.136.713.093.834.231.122.564-.058.74-.398m-2.067-15.25c.18-.339.138-.716-.093-.833-.229-.122-.561.055-.741.398-.177.342-.135.716.093.837.232.121.564-.059.741-.401M19.837 36.15c.332-.637.253-1.332-.173-1.554-.43-.225-1.045.108-1.377.741-.333.637-.257 1.332.173 1.557.429.222 1.045-.11 1.377-.744m-.08-11.241c.333-.634.253-1.33-.172-1.555-.43-.224-1.046.108-1.378.745-.332.633-.256 1.332.173 1.554.43.225 1.045-.107 1.378-.744m-2.55 7.784c.18-.34.138-.713-.094-.835-.228-.12-.56.06-.74.399-.177.342-.135.716.093.837.232.121.564-.059.74-.401m-.042-3.493c.18-.342.139-.716-.093-.837-.229-.121-.561.059-.738.401-.18.34-.138.713.094.834.228.122.56-.058.737-.398"/><path stroke="#002140" stroke-linecap="round" stroke-linejoin="round" stroke-width=".65" d="M17.51 21.906c3.426-5.75 8.846-8.816 12.491-6.909 3.866 2.022 4.271 8.875.903 15.309s-9.227 10.006-13.093 7.985c-2.949-1.544-3.8-5.877-2.669-10.73.87-3.71 2.368-5.655 2.368-5.655"/><path stroke="#002140" stroke-linecap="round" stroke-linejoin="round" stroke-width=".65" d="M15.243 22.2c1.557-2.96 3.63-5.39 5.929-7.147 3.038-2.33 6.472-3.482 9.625-3.136l.041.003h.025M14.82 23.041q.119-.255.253-.509m-2.257 9.888q-.002-.415.018-.834M34.42 13.087s.008.003.011.007c5.818 3.33 7.092 12.491 2.807 20.684-4.36 8.334-12.827 12.511-18.908 9.33-3.68-1.924-5.514-5.849-5.514-10.663"/><path stroke="#002140" stroke-linecap="round" stroke-linejoin="round" stroke-width=".65" d="M14.82 23.04q.036-.057.035-.058c.073-.15.142-.298.218-.45.056-.111.11-.222.17-.332l.059-.115c1.554-2.97 3.627-5.378 5.87-7.033 3.354-2.485 7.085-3.277 10.02-1.744 4.897 2.565 5.724 10.65 1.844 18.06-3.876 7.41-10.992 11.342-15.89 8.777-2.592-1.353-4.156-4.201-4.33-7.7v-.025a14 14 0 0 1 .09-2.322c.52-4.34 1.665-6.604 1.904-7.037z"/><path stroke="#002140" stroke-linecap="round" stroke-linejoin="round" stroke-width=".65" d="M24.906 25.31c.364.392.385 1.164.01 1.877-.435.834-1.245 1.273-1.81.98-.56-.298-.664-1.212-.228-2.046.225-.43.55-.755.89-.928.204-.104.418-.155.616-.135a.8.8 0 0 1 .522.253m5.86-13.429.031.034c.007.007.017.021.031.032.253.256 1.305 1.176 3.53 1.266"/><path stroke="#002140" stroke-linecap="round" stroke-linejoin="round" stroke-width=".65" d="m30.818 11.986.01-.038.01-.028.499-1.537.003-.01m3.05 2.8.007-.024.024-.062.509-1.482"/><path stroke="#002140" stroke-linecap="round" stroke-linejoin="round" stroke-width=".65" d="M35.76 10.311a.677.677 0 0 1 .454.841.68.68 0 0 1-.845.454l-.401-.122-3.631-1.1-.415-.125a.678.678 0 0 1 .194-1.325q.098 0 .197.03zM24.4 24.966l3.396-6.314-1.287-.796 3.316-1.837-.014.536-.052 2.153-.028 1.045-1.343-.793-3.395 6.314m-1.257-.139.063-5.853-1.084.142 1.236-3.001L25.529 19l-1.08.198-.065 5.766v.086m5.146 4.746c-.332.634-.948.966-1.377.741-.43-.221-.506-.92-.173-1.554.332-.633.948-.969 1.377-.744.426.225.505.92.173 1.557m-9.691 6.352c-.332.633-.948.965-1.377.744-.43-.225-.506-.92-.174-1.558.333-.633.949-.965 1.378-.74.426.221.505.917.173 1.554m10.006-19.593q.099.015.187.062c.43.221.509.92.177 1.554-.115.218-.26.398-.423.537m1.254 6.877c-.18.342-.513.523-.741.401-.232-.12-.274-.495-.094-.837.177-.34.509-.52.74-.398.23.12.27.495.094.834m.437-4.008c-.18.339-.513.519-.741.398-.232-.122-.274-.495-.094-.835.177-.342.51-.522.741-.401.228.121.27.495.093.837m-14.308 7.622c-.176.339-.509.519-.737.398-.232-.122-.273-.495-.093-.834.176-.343.508-.523.737-.402.232.121.273.495.093.838m.042 3.492c-.177.343-.51.523-.741.402-.229-.121-.27-.495-.093-.838.18-.339.512-.519.74-.398.232.121.274.495.094.834m6.098 3.233c-.176.34-.509.52-.74.398-.229-.12-.27-.495-.094-.834.18-.343.512-.523.74-.401.233.12.274.495.094.837m3.531-2.305c-.177.339-.51.519-.738.398-.232-.121-.273-.495-.093-.838.176-.34.509-.52.737-.398.232.121.273.495.094.838M21.24 20.673c-.176.343-.508.523-.74.402-.228-.122-.27-.495-.093-.838.18-.343.512-.52.74-.398.232.118.274.495.094.834m4.97-3.54c-.18.342-.509.522-.74.401-.232-.121-.274-.495-.094-.837.18-.34.509-.52.74-.398.23.117.27.495.094.834m-6.451 7.774c-.333.637-.949.969-1.378.744-.43-.222-.505-.92-.173-1.554.332-.637.948-.97 1.377-.744.426.225.506.92.173 1.554M31.344 8.719a2.768 2.768 0 1 1 5.434-.748c0 .765-.308 1.457-.81 1.956"/></g><defs><clipPath id="a"><path fill="#fff" d="M0 0h52v52H0z"/></clipPath></defs></svg>
